X:1
T:RVW2/1/20 T'Old Tup (part of play of Ker(?) Valley)
T:RVW2/1/20 T'Old Tup (part of play of Ker(?) Valley)
T:Sung by a man in the Inn at Wickersley, Yorkshire, Sep 1907
T:Transcribed by Simon Furey and Lewis Jones
C:Transcribed by Simon Furey and Lewis Jones
L:1/8
Q:1/4=116
M:6/8
K:F
V:1 treble 
V:1
"^(editorial suggestion)" C | F2 F G2 A | F3 C2 D | _E2 E D2 B, |1 C3 z2 :|2 C3 z2 z || F3 C3 | %7
w: Fay-|lay * * *|Fa- la- la|ler- o * *|lay.|||
 x6 :| Faa | F3 C3 | FFF G2 E | F4- F |] %12
w: |||||

